X:1
T:Missa cum quatuor vocibus
T:Pierre Colin (fl. 1538-65)
T:From a printed source (no 9-005) in the Música Colonial archive in Guatemala Cathedral
T:Missa cum quatuor vocibus
T:1. Kyrie
T:Copyright © 
T:Copyright © 
C:Pierre Colin (fl. 1538-65)
Z:From a printed source (no 9-005) in the Música
Z:Colonial archive in Guatemala Cathedral
Z:Copyright ©
%%score [ 1 2 3 4 ]
L:1/8
M:4/4
K:F
V:1 treble nm="Soprano" snm="S."
V:2 treble-8 transpose=-12 nm="Tenor" snm="T."
V:3 treble-8 transpose=-12 nm="Tenor" snm="T."
V:4 bass nm="Bass" snm="B."
V:1
 F4 F2 F2 | G4 A3 G | FE F4 E2 | F2 c2 d2 c2 | B2 G2 A3 G | FG AF G4 | F2 c4 B2 | A2 G3 F F2- | %8
w: Ky- ri- e|e- * *|* * lei- son,|ky- ri- e e-||* * * * lei-|son, ky- ri-|e e- * lei-|
 F2 E2 F8 ||[M:4/4] A6 G2 | F2 F2 E4 | E2 F2 G4 | A3 B c2 G2 | A2 B2 A2 G2 | A6 G2 | F4 E8 || %16
w: * * son.|Chris- te|e lei- son,|Chris- te e|lei- * son, Chris-|te e- * *||lei- son,|
[M:4/4] z4 c4- | c2 c2 A4- | A2 A2 FG AF | G2 F4 E2 | F8- | F4 z4 | c6 c2 | A4 FG AF | G2 F4 E2 | %25
w: Ky-|* ri- e|_ e- * * * *|* * lei-|son,|_|ky- ri-|e e- * * *|* * lei-|
 F8 |] %26
w: son.|
V:2
 z8 | c4 A2 F2 | B4 c4- | c4 z2 c2 | d2 c2 A2 c2 | d2 f4 e2 | f2 c2 d4 | _e4 d2 B2 | c4 c8 || %9
w: |Ky- ri- e\_e-|lei- son,|_ ky-|ri- e e- *|* * lei-|son, ky- ri-|e e- *|lei- son.|
[M:4/4] f6 e2 | d4 c4- | c2 c2 d2 c2 | A2 c3 d e2 | c2 f4 e2 | f3 e dc c2- | c2 =B2 c8 || %16
w: Chris- te|e- *|* * * lei-|son, Chris- te e-|||* lei- son,|
[M:4/4] z8 | z4 f4- | f2 f2 d4- | d2 B2 c4 | A8 | z2 f4 f2 | e2 c3 d _e2 | c2 c2 d2 f2 | d4 c4 | %25
w: |Ky-|* ri- e|_ e- lei-|son,|ky- ri-|e e- * *||* lei-|
 c8 |] %26
w: son.|
V:3
 z8 | z4 F4 | F2 F2 G4 | A3 G FE F2- | F2 E2 F2 F2 | B2 A2 B2 c2- | cB G2 A2 B2 | c3 B A2 GF | %8
w: |Ky-|ri- e e-||* lei- son, ky-|ri- e e- *|||
 G4 F8 ||[M:4/4] c6 c2 | A6 A2 | G2 F2- F2 E2 | F3 G AB c2- | c2 B2 c4 | cB AG F2 G2 | A2 F2 G8 || %16
w: lei- son.|Chris- te|e- *||* * * * lei-|* son, Chris-|te _ _ _ e- *|* lei- son.|
[M:4/4] c6 c2 | A6 A2 | F3 G A2 F2 | BA A G/F/ G4 | F2 c4 c2 | A2 A2 FG AB | c2 A2 G4 | %23
w: Ky- ri-|e e-||* * * * * lei-|son, ky- ri-|e e- * * * *|* * lei-|
 F2 A2 B2 c2 | B3 A G4 | F8 |] %26
w: son, ky- ri- e|e- * lei-|son.|
V:4
 z8 | z4 F,4 | B,,2 D,2 C,4 | F,,2 F,,2 B,,2 A,,2 | B,,2 C,2 F,,4 | z4 z2 C,2 | F,2 E,2 F,2 G,2 | %7
w: |Ky-|ri- e\_e- lei-|son, ky- ri- e|e- lei- son,|ky-|ri- e e- *|
 C,4 D,4 | C,4 F,,8 ||[M:4/4] F,6 C,2 | D,4 A,,3 B,, | C,2 A,,2 B,,2 C,2 | F,,2 F,4 E,2 | %13
w: |lei- son.|Chris- te|e- * *|* * * lei-|son, Chris- te|
 F,2 D,2 C,4 | F,,2 F,4 E,2 | D,4 C,8 ||[M:4/4] z8 | F,6 F,2 | D,6 D,2 | B,,2 D,2 C,4 | %20
w: e- * *||lei- son.||Ky- ri-|e e-|* * lei-|
 F,,4 z2 F,2- | F,2 F,2 D,4 | C,2 F,4 !courtesy!_E,2 | F,2 F,,2 B,,2 A,,2 | B,,4 C,4 | F,,8 |] %26
w: son, ky-|* ri- e|e- * *||lei- *|son.|

